src/assets/svg/1-header/0-alert.svg

<svg width="17" height="17" viewBox="0 0 17 17" fill="none" xmlns="http://www.w3.org/2000/svg">
<path d="M8.02196 12.0416H9.08446V7.79163H8.02196V12.0416ZM8.50008 6.48121C8.66536 6.48121 8.80407 6.42808 8.91623 6.32183C9.02838 6.21558 9.08446 6.07982 9.08446 5.91454C9.08446 5.74927 9.02838 5.6076 8.91623 5.48954C8.80407 5.37149 8.66536 5.31246 8.50008 5.31246C8.3348 5.31246 8.19609 5.37149 8.08394 5.48954C7.97178 5.6076 7.91571 5.74927 7.91571 5.91454C7.91571 6.07982 7.97178 6.21558 8.08394 6.32183C8.19609 6.42808 8.3348 6.48121 8.50008 6.48121ZM8.50008 15.5833C7.53203 15.5833 6.6171 15.3974 5.75529 15.0255C4.89348 14.6536 4.14088 14.146 3.49748 13.5026C2.85407 12.8592 2.34644 12.1066 1.97456 11.2448C1.60269 10.3829 1.41675 9.46211 1.41675 8.48225C1.41675 7.5142 1.60269 6.59927 1.97456 5.73746C2.34644 4.87565 2.85407 4.126 3.49748 3.4885C4.14088 2.851 4.89348 2.34631 5.75529 1.97444C6.6171 1.60256 7.53793 1.41663 8.51779 1.41663C9.48585 1.41663 10.4008 1.60256 11.2626 1.97444C12.1244 2.34631 12.874 2.851 13.5115 3.4885C14.149 4.126 14.6537 4.87565 15.0256 5.73746C15.3975 6.59927 15.5834 7.5201 15.5834 8.49996C15.5834 9.46802 15.3975 10.3829 15.0256 11.2448C14.6537 12.1066 14.149 12.8592 13.5115 13.5026C12.874 14.146 12.1244 14.6536 11.2626 15.0255C10.4008 15.3974 9.47994 15.5833 8.50008 15.5833ZM8.51779 14.5208C10.1824 14.5208 11.599 13.9335 12.7678 12.7588C13.9365 11.5842 14.5209 10.1586 14.5209 8.48225C14.5209 6.81767 13.9365 5.401 12.7678 4.23225C11.599 3.0635 10.1765 2.47913 8.50008 2.47913C6.8355 2.47913 5.41588 3.0635 4.24123 4.23225C3.06657 5.401 2.47925 6.82357 2.47925 8.49996C2.47925 10.1645 3.06657 11.5842 4.24123 12.7588C5.41588 13.9335 6.8414 14.5208 8.51779 14.5208Z" fill="#E9E8E8" fill-opacity="0.8"/>
</svg>

<svg xmlns="http://www.w3.org/2000/svg" width="17" height="17" fill="none"><path fill="#E9E8E8" fill-opacity=".8" d="M8.022 12.042h1.062v-4.25H8.022v4.25Zm.478-5.56a.582.582 0 0 0 .416-.16.536.536 0 0 0 .168-.407.595.595 0 0 0-.168-.425.551.551 0 0 0-.416-.178.551.551 0 0 0-.416.178.595.595 0 0 0-.168.425c0 .165.056.3.168.407.112.106.25.16.416.16Zm0 9.101a6.853 6.853 0 0 1-2.745-.558 7.185 7.185 0 0 1-2.258-1.522 7.185 7.185 0 0 1-1.522-2.258 6.898 6.898 0 0 1-.558-2.763c0-.968.186-1.883.558-2.745A7.079 7.079 0 0 1 3.497 3.49a7.26 7.26 0 0 1 2.258-1.515 6.897 6.897 0 0 1 2.763-.557c.968 0 1.883.186 2.745.557A7.153 7.153 0 0 1 13.51 3.49a7.154 7.154 0 0 1 1.515 2.248c.372.862.557 1.783.557 2.763 0 .968-.185 1.883-.557 2.745a7.262 7.262 0 0 1-1.514 2.258 7.08 7.08 0 0 1-2.25 1.522 6.897 6.897 0 0 1-2.762.558Zm.018-1.062c1.664 0 3.081-.588 4.25-1.762 1.168-1.175 1.753-2.6 1.753-4.277 0-1.664-.585-3.081-1.753-4.25C11.599 3.063 10.177 2.48 8.5 2.48c-1.665 0-3.084.584-4.259 1.753C3.067 5.401 2.48 6.824 2.48 8.5c0 1.665.588 3.084 1.762 4.259 1.175 1.175 2.6 1.762 4.277 1.762Z"/></svg>
